svgs/regular/backpack.svg

<svg xmlns="http://www.w3.org/2000/svg" viewBox="0 0 448 512"><!-- Font Awesome Pro 5.15.3 by @fontawesome - https://fontawesome.com License - https://fontawesome.com/license (Commercial License) --><path d="M320 80h-8V56c0-30.88-25.12-56-56-56h-64c-30.88 0-56 25.12-56 56v24h-8C57.31 80 0 137.31 0 208v240c0 35.35 28.65 64 64 64h320c35.35 0 64-28.65 64-64V208c0-70.69-57.31-128-128-128zM184 56c0-4.41 3.59-8 8-8h64c4.41 0 8 3.59 8 8v24h-80V56zm136 408H128v-64h192v64zm0-112H128v-32c0-17.67 14.33-32 32-32h128c17.67 0 32 14.33 32 32v32zm80 96c0 8.82-7.18 16-16 16h-16V320c0-44.11-35.89-80-80-80H160c-44.11 0-80 35.89-80 80v144H64c-8.82 0-16-7.18-16-16V208c0-44.11 35.89-80 80-80h192c44.11 0 80 35.89 80 80v240zm-96-288H144c-8.84 0-16 7.16-16 16v16c0 8.84 7.16 16 16 16h160c8.84 0 16-7.16 16-16v-16c0-8.84-7.16-16-16-16z"/></svg>

<svg xmlns="http://www.w3.org/2000/svg" viewBox="0 0 448 512"><!--! Font Awesome Pro 6.0.0 by @fontawesome - https://fontawesome.com License - https://fontawesome.com/license (Commercial License) Copyright 2022 Fonticons, Inc. --><path d="M320 80h-8V56C312 25.12 286.9 0 256 0H192C161.1 0 136 25.12 136 56V80H128c-70.75 0-128 57.25-128 128V448c0 35.38 28.62 64 64 64h320c35.38 0 64-28.62 64-64V208C448 137.2 390.8 80 320 80zM184 56C184 51.62 187.6 48 192 48h64c4.375 0 8 3.625 8 8V80h-80V56zM320 464H128v-64h192V464zM320 352H128v-32c0-17.62 14.38-32 32-32h128c17.62 0 32 14.38 32 32V352zM400 448c0 8.875-7.125 16-16 16h-16V320c0-44.13-35.88-80-80-80H160c-44.12 0-80 35.88-80 80v144H64c-8.875 0-16-7.125-16-16V208C48 163.9 83.88 128 128 128h192c44.13 0 80 35.88 80 80V448zM304 160H143.1C135.1 160 128 167.1 128 175.1V192c0 8.875 7.125 16 16 16h160C312.9 208 320 200.9 320 192V176C320 167.1 312.9 160 304 160z"/></svg>
